svgs/hepsiburada.svg

<svg xmlns="http://www.w3.org/2000/svg" viewBox="0 0 192 192"><path d="M141.625 163.782c-5.639-4.546-14.34-11.568-19.337-15.604l-9.085-7.338 3.05.006c2.859.005 3.804.616 15.052 9.736 6.601 5.353 12.46 9.799 13.02 9.881.559.082 1.569.649 2.243 1.259 1.155 1.045 1.211.631.983-7.224-.133-4.583-.322-9.531-.419-10.995-.169-2.547-.081-2.663 2.045-2.663h2.221l.51 15.333c.28 8.434.388 15.455.239 15.604-.148.148-4.883-3.449-10.522-7.995Zm-61.534-5.37c-.753-1.269-3.495-5.742-6.094-9.94l-4.725-7.632h2.781c2.729 0 2.847.111 6.414 6.015 1.998 3.308 3.896 6.178 4.218 6.376.321.199 3.084-2.508 6.14-6.015 5.199-5.968 5.73-6.376 8.296-6.376 2.007 0 2.597.237 2.202.887-1.004 1.652-16.856 18.993-17.362 18.993-.276 0-1.118-1.039-1.87-2.308Zm17.873-24.011c-3.508-1.019-5.522-3.697-5.522-7.344 0-5.608 2.952-8.219 10.531-9.315 4.744-.686 6.171-1.504 5.901-3.383-.449-3.126-7.159-3.439-8.288-.386-.445 1.203-1.192 1.506-3.875 1.576-2.88.075-3.323-.103-3.32-1.334.006-2.739 2.599-5.826 5.978-7.117 5.411-2.066 14.101-.391 15.956 3.076.373.698.782 6.286.909 12.418l.229 11.15-3.372-.001c-2.882 0-3.373-.204-3.373-1.399 0-1.327-.133-1.308-2.584.355-1.421.964-3.152 1.753-3.847 1.753-.694 0-1.688.131-2.208.29-.52.16-1.922.008-3.115-.339Zm9.174-6.392c1.432-1.127 1.87-2.102 1.87-4.16v-2.688l-4.437 1.156c-4.251 1.108-4.447 1.257-4.668 3.553-.138 1.438.146 2.635.71 2.992 1.653 1.048 4.597.663 6.525-.853Zm19.975 6.106c-6.8-2.436-9.746-10.413-7.117-19.267 1.6-5.388 5.916-8.797 11.136-8.797 2.168 0 6.276 1.959 6.276 2.993 0 .306.239.557.532.558.293.001.43-2.874.305-6.39l-.228-6.391h7.911v36.919h-3.55c-3.127 0-3.55-.177-3.55-1.483 0-1.427-.083-1.414-2.185.355-1.201 1.011-2.559 1.842-3.017 1.848-.458.005-1.472.159-2.253.341-.781.182-2.698-.126-4.26-.686Zm9.157-6.983c4.507-4.506 2.027-14.692-3.577-14.692-2.516 0-3.79.753-4.896 2.891-2 3.867-.789 11.856 1.963 12.964 2.188.88 4.963.384 6.51-1.163Zm17.822 7.032c-3.603-1.591-4.976-3.706-4.918-7.582.079-5.32 3.147-7.96 10.31-8.873 4.998-.637 6.465-1.431 6.189-3.35-.458-3.184-7.021-3.419-8.444-.302-.596 1.305-1.299 1.578-4.059 1.578-3.145 0-3.325-.102-3.117-1.775.302-2.439 2.342-5.126 4.807-6.333 4.862-2.38 13.114-1.504 16.354 1.736 1.646 1.646 1.693 2.017 1.693 13.268v11.574l-3.195-.254c-2.667-.212-3.195-.495-3.195-1.712 0-1.356-.089-1.378-1.268-.311-1.579 1.429-6.071 3.341-7.761 3.304-.696-.015-2.224-.451-3.396-.968Zm9.973-6.427c1.166-1.166 1.742-2.54 1.742-4.156v-2.413l-3.372.895c-6.011 1.593-6.363 1.91-5.871 5.287.388 2.664 4.987 2.901 7.501.387Zm-138.781 4.875c-2.102-1.769-2.184-1.782-2.184-.355 0 1.306-.423 1.483-3.55 1.483H16V96.821h7.1v13.755l2.019-1.934c4.486-4.299 12.145-2.836 15.559 2.972 1.671 2.842 1.941 4.066 1.905 8.636-.074 9.319-4.001 14.192-11.441 14.197-2.918.002-4.122-.375-5.858-1.835Zm6.659-4.283c4.201-1.612 4.201-13.836 0-15.448-4.03-1.546-7.826.931-8.52 5.561-1.05 7 3.197 11.93 8.52 9.887Zm17.697 4.765c-3.186-1.942-3.821-4.625-3.821-16.145v-10.188h7.1v9.426c0 7.383.24 9.769 1.106 11.005 1.515 2.164 4.84 2.087 7.091-.165 1.673-1.672 1.743-2.117 1.743-11.004v-9.262h7.716l-.121 13.489-.121 13.49h-3.382c-3.198 0-3.382-.104-3.382-1.911 0-1.64-.126-1.755-.887-.814-2.907 3.593-8.974 4.56-13.042 2.079Zm25.289-12.844v-13.489h6.854l-.272 2.307-.272 2.307 1.638-1.861c1.945-2.211 4.188-3.463 6.205-3.463 1.287 0 1.467.435 1.467 3.549 0 3.296-.125 3.55-1.742 3.55-2.624 0-5.108 1.372-5.99 3.307-.433.952-.788 5.23-.788 9.507v7.776h-7.1Zm-2.13-41.476c0-9.535-.194-17.842-.431-18.46-.358-.933.18-1.123 3.195-1.123 3.462 0 3.626.087 3.626 1.908v1.908l2.097-2.009c4.556-4.365 12.776-2.552 15.945 3.518 1.124 2.153 1.48 4.129 1.471 8.165-.019 8.762-3.391 13.377-10.256 14.037-3.371.324-7.837-1.212-7.837-2.695a.703.703 0 0 0-.71-.692c-.421 0-.71 2.603-.71 6.39v6.39h-6.39ZM88.95 80.11c3.238-2.268 3.66-9.779.757-13.47-1.959-2.491-6.071-2.46-8.442.063-1.457 1.552-1.721 2.54-1.721 6.452 0 4.181.189 4.782 1.992 6.332 2.282 1.963 5.156 2.205 7.414.623Zm73.974 9.008c-4.894-3.846-9.23-7.121-9.636-7.277-.663-.257 13.811-28.846 17.042-33.661l1.328-1.979-1.683.466c-1.893.523-26.946 2.764-27.266 2.439-.113-.115-.037-1.088.169-2.162.356-1.853.579-1.953 4.375-1.962 2.2-.005 9.431-.478 16.069-1.05 6.639-.573 12.328-1.048 12.642-1.056.315-.008-1.48 3.899-3.989 8.683a6843.206 6843.206 0 0 0-9.911 18.992l-5.351 10.295 9.117 7.086c8.342 6.485 9.688 8.123 6.712 8.168-.396.006-4.724-3.136-9.618-6.982ZM53.338 86.786c-3.838-.885-6.904-2.926-8.584-5.713-1.901-3.155-2-12.61-.168-15.988 3.849-7.095 14.739-8.953 20.879-3.562 3.131 2.749 4.494 5.803 4.494 10.07v3.218h-9.94c-6.467 0-9.94.26-9.94.745 0 1.411 2.08 4.764 3.227 5.204 2.478.951 6.489.446 7.778-.979.982-1.085 2.187-1.42 5.105-1.42 3.732 0 3.801.037 2.996 1.598-2.929 5.68-9.166 8.368-15.847 6.827Zm8.811-18.255c0-1.626-1.907-3.405-4.287-3.999-2.613-.651-5.418.667-6.702 3.149l-1.117 2.16h6.053c5.41 0 6.053-.139 6.053-1.31Zm43.501 17.297c-2.377-1.033-5.154-4.767-5.159-6.934-.002-1.018.639-1.243 3.547-1.243 1.953 0 3.55.32 3.55.71 0 .391.639 1.349 1.42 2.13 2.518 2.518 9.23 1.529 9.23-1.359 0-1.439-1.912-2.386-7.455-3.692-6.561-1.546-9.585-3.981-9.585-7.72 0-2.797 2.345-6.51 5.014-7.941 3.153-1.691 9.344-1.679 13.091.025 3.273 1.489 4.235 2.522 4.886 5.245.456 1.908.395 1.952-2.71 1.952-2.441 0-3.587-.41-4.951-1.775-2.74-2.74-8.23-2.026-8.23 1.07 0 1.071.905 1.624 4.083 2.499 10.964 3.017 13.339 4.902 12.755 10.127-.615 5.508-4.468 7.977-12.377 7.931-2.649-.015-5.848-.476-7.109-1.025ZM16 67.711V49.252h7.1v12.021l2.511-1.481c3.826-2.258 9.59-1.606 12.625 1.426l2.259 2.257.226 11.348.226 11.348H33.75v-8.414c0-4.628-.352-9.422-.781-10.654-.95-2.725-3.603-3.633-6.26-2.142-2.985 1.676-3.587 3.828-3.599 12.868l-.01 8.342H16Zm112.178 4.97v-13.49h3.727l3.728-.001-.207 13.49-.208 13.491h-7.04Zm.761-17.49c-1.763-2.242-1.772-2.354-.366-4.361 2.083-2.975 7.415-1.188 7.415 2.484 0 1.377-2.663 3.747-4.209 3.747-.752 0-2.03-.841-2.84-1.87Zm-74.6-4.022c0-.899.292-1.937.648-2.308.356-.371.822-2.432 1.036-4.579.91-9.139 2.26-18.39 2.754-18.879.293-.29.532-1.593.532-2.894 0-2.691.674-3.015 1.965-.947.488.781 1.284 1.418 1.769 1.415.484-.002 3.277 2.359 6.206 5.247 9.816 9.68 16.78 16.058 17.536 16.058.413 0 1.148.479 1.634 1.065 1.407 1.696 3.53 1.252 6.791-1.42 1.668-1.367 3.204-2.485 3.414-2.485.479 0 5.609-3.464 6.109-4.125 1.475-1.95 4.985-2.517 4.985-.806 0 .366 1.518 2.841 3.373 5.499 4.874 6.986 5.19 7.624 4.244 8.57-1.098 1.099-2.647 1.009-2.647-.153 0-.526-.639-1.534-1.42-2.24-.781-.707-1.42-1.699-1.42-2.205s-.443-1.175-.986-1.488c-.542-.312-1.101-1.172-1.242-1.911-.335-1.754-2.789-3.287-3.247-2.029-.178.488-.935.888-1.684.888-.748 0-1.361.288-1.361.64 0 .56-4.058 3.419-6.034 4.251-.391.164-2.021 1.368-3.624 2.674-1.602 1.306-3.213 2.375-3.579 2.375-.367 0-2.078-1.438-3.802-3.195-1.725-1.758-3.52-3.195-3.989-3.195-.47 0-3.969-3.355-7.776-7.455-3.808-4.1-7.253-7.455-7.658-7.455-.404 0-1.627-.855-2.718-1.901-1.091-1.045-2.163-1.722-2.381-1.504-.218.218-.588 2.681-.822 5.474-.234 2.792-.698 5.245-1.031 5.451-.332.205-.605 2.253-.605 4.55 0 2.297-.319 4.373-.71 4.615-.39.241-.71 1.698-.71 3.236 0 2.512-.182 2.798-1.775 2.798-1.379 0-1.775-.364-1.775-1.632Z"/></svg>

<svg
    xmlns="http://www.w3.org/2000/svg"
    viewBox="0 0 192 192"
    id="vector">
    <g id="group">
        <path
            id="path_6"
            d="M 141.625 163.782 C 135.986 159.236 127.285 152.214 122.288 148.178 L 113.203 140.84 L 116.253 140.846 C 119.112 140.851 120.057 141.462 131.305 150.582 C 137.906 155.935 143.765 160.381 144.325 160.463 C 144.884 160.545 145.894 161.112 146.568 161.722 C 147.723 162.767 147.779 162.353 147.551 154.498 C 147.418 149.915 147.229 144.967 147.132 143.503 C 146.963 140.956 147.051 140.84 149.177 140.84 L 151.398 140.84 L 151.908 156.173 C 152.188 164.607 152.296 171.628 152.147 171.777 C 151.999 171.925 147.264 168.328 141.625 163.782 Z M 80.091 158.412 C 79.338 157.143 76.596 152.67 73.997 148.472 L 69.272 140.84 L 72.053 140.84 C 74.782 140.84 74.9 140.951 78.467 146.855 C 80.465 150.163 82.363 153.033 82.685 153.231 C 83.006 153.43 85.769 150.723 88.825 147.216 C 94.024 141.248 94.555 140.84 97.121 140.84 C 99.128 140.84 99.718 141.077 99.323 141.727 C 98.319 143.379 82.467 160.72 81.961 160.72 C 81.685 160.72 80.843 159.681 80.091 158.412 Z M 97.964 134.401 C 94.456 133.382 92.442 130.704 92.442 127.057 C 92.442 121.449 95.394 118.838 102.973 117.742 C 107.717 117.056 109.144 116.238 108.874 114.359 C 108.425 111.233 101.715 110.92 100.586 113.973 C 100.141 115.176 99.394 115.479 96.711 115.549 C 93.831 115.624 93.388 115.446 93.391 114.215 C 93.397 111.476 95.99 108.389 99.369 107.098 C 104.78 105.032 113.47 106.707 115.325 110.174 C 115.698 110.872 116.107 116.46 116.234 122.592 L 116.463 133.742 L 113.091 133.741 C 110.209 133.741 109.718 133.537 109.718 132.342 C 109.718 131.015 109.585 131.034 107.134 132.697 C 105.713 133.661 103.982 134.45 103.287 134.45 C 102.593 134.45 101.599 134.581 101.079 134.74 C 100.559 134.9 99.157 134.748 97.964 134.401 Z M 107.138 128.009 C 108.57 126.882 109.008 125.907 109.008 123.849 L 109.008 121.161 L 104.571 122.317 C 100.32 123.425 100.124 123.574 99.903 125.87 C 99.765 127.308 100.049 128.505 100.613 128.862 C 102.266 129.91 105.21 129.525 107.138 128.009 Z M 127.113 134.115 C 120.313 131.679 117.367 123.702 119.996 114.848 C 121.596 109.46 125.912 106.051 131.132 106.051 C 133.3 106.051 137.408 108.01 137.408 109.044 C 137.408 109.35 137.647 109.601 137.94 109.602 C 138.233 109.603 138.37 106.728 138.245 103.212 L 138.017 96.821 L 145.928 96.821 L 145.928 133.74 L 142.378 133.74 C 139.251 133.74 138.828 133.563 138.828 132.257 C 138.828 130.83 138.745 130.843 136.643 132.612 C 135.442 133.623 134.084 134.454 133.626 134.46 C 133.168 134.465 132.154 134.619 131.373 134.801 C 130.592 134.983 128.675 134.675 127.113 134.115 Z M 136.27 127.132 C 140.777 122.626 138.297 112.44 132.693 112.44 C 130.177 112.44 128.903 113.193 127.797 115.331 C 125.797 119.198 127.008 127.187 129.76 128.295 C 131.948 129.175 134.723 128.679 136.27 127.132 Z M 154.092 134.164 C 150.489 132.573 149.116 130.458 149.174 126.582 C 149.253 121.262 152.321 118.622 159.484 117.709 C 164.482 117.072 165.949 116.278 165.673 114.359 C 165.215 111.175 158.652 110.94 157.229 114.057 C 156.633 115.362 155.93 115.635 153.17 115.635 C 150.025 115.635 149.845 115.533 150.053 113.86 C 150.355 111.421 152.395 108.734 154.86 107.527 C 159.722 105.147 167.974 106.023 171.214 109.263 C 172.86 110.909 172.907 111.28 172.907 122.531 L 172.907 134.105 L 169.712 133.851 C 167.045 133.639 166.517 133.356 166.517 132.139 C 166.517 130.783 166.428 130.761 165.249 131.828 C 163.67 133.257 159.178 135.169 157.488 135.132 C 156.792 135.117 155.264 134.681 154.092 134.164 Z M 164.065 127.737 C 165.231 126.571 165.807 125.197 165.807 123.581 L 165.807 121.168 L 162.435 122.063 C 156.424 123.656 156.072 123.973 156.564 127.35 C 156.952 130.014 161.551 130.251 164.065 127.737 Z M 25.284 132.612 C 23.182 130.843 23.1 130.83 23.1 132.257 C 23.1 133.563 22.677 133.74 19.55 133.74 L 16 133.74 L 16 96.821 L 23.1 96.821 L 23.1 110.576 L 25.119 108.642 C 29.605 104.343 37.264 105.806 40.678 111.614 C 42.349 114.456 42.619 115.68 42.583 120.25 C 42.509 129.569 38.582 134.442 31.142 134.447 C 28.224 134.449 27.02 134.072 25.284 132.612 Z M 31.943 128.329 C 36.144 126.717 36.144 114.493 31.943 112.881 C 27.913 111.335 24.117 113.812 23.423 118.442 C 22.373 125.442 26.62 130.372 31.943 128.329 Z M 49.64 133.094 C 46.454 131.152 45.819 128.469 45.819 116.949 L 45.819 106.761 L 52.919 106.761 L 52.919 116.187 C 52.919 123.57 53.159 125.956 54.025 127.192 C 55.54 129.356 58.865 129.279 61.116 127.027 C 62.789 125.355 62.859 124.91 62.859 116.023 L 62.859 106.761 L 70.575 106.761 L 70.454 120.25 L 70.333 133.74 L 66.951 133.74 C 63.753 133.74 63.569 133.636 63.569 131.829 C 63.569 130.189 63.443 130.074 62.682 131.015 C 59.775 134.608 53.708 135.575 49.64 133.094 Z M 74.929 120.25 L 74.929 106.761 L 81.783 106.761 L 81.511 109.068 L 81.239 111.375 L 82.877 109.514 C 84.822 107.303 87.065 106.051 89.082 106.051 C 90.369 106.051 90.549 106.486 90.549 109.6 C 90.549 112.896 90.424 113.15 88.807 113.15 C 86.183 113.15 83.699 114.522 82.817 116.457 C 82.384 117.409 82.029 121.687 82.029 125.964 L 82.029 133.74 L 74.929 133.74 Z M 72.799 78.774 C 72.799 69.239 72.605 60.932 72.368 60.314 C 72.01 59.381 72.548 59.191 75.563 59.191 C 79.025 59.191 79.189 59.278 79.189 61.099 L 79.189 63.007 L 81.286 60.998 C 85.842 56.633 94.062 58.446 97.231 64.516 C 98.355 66.669 98.711 68.645 98.702 72.681 C 98.683 81.443 95.311 86.058 88.446 86.718 C 85.075 87.042 80.609 85.506 80.609 84.023 C 80.609 83.642 80.289 83.331 79.899 83.331 C 79.478 83.331 79.189 85.934 79.189 89.721 L 79.189 96.111 L 72.799 96.111 Z M 88.95 80.11 C 92.188 77.842 92.61 70.331 89.707 66.64 C 87.748 64.149 83.636 64.18 81.265 66.703 C 79.808 68.255 79.544 69.243 79.544 73.155 C 79.544 77.336 79.733 77.937 81.536 79.487 C 83.818 81.45 86.692 81.692 88.95 80.11 Z M 162.924 89.118 C 158.03 85.272 153.694 81.997 153.288 81.841 C 152.625 81.584 167.099 52.995 170.33 48.18 L 171.658 46.201 L 169.975 46.667 C 168.082 47.19 143.029 49.431 142.709 49.106 C 142.596 48.991 142.672 48.018 142.878 46.944 C 143.234 45.091 143.457 44.991 147.253 44.982 C 149.453 44.977 156.684 44.504 163.322 43.932 C 169.961 43.359 175.65 42.884 175.964 42.876 C 176.279 42.868 174.484 46.775 171.975 51.559 C 169.466 56.343 165.006 64.889 162.064 70.551 L 156.713 80.846 L 165.83 87.932 C 174.172 94.417 175.518 96.055 172.542 96.1 C 172.146 96.106 167.818 92.964 162.924 89.118 Z M 53.338 86.786 C 49.5 85.901 46.434 83.86 44.754 81.073 C 42.853 77.918 42.754 68.463 44.586 65.085 C 48.435 57.99 59.325 56.132 65.465 61.523 C 68.596 64.272 69.959 67.326 69.959 71.593 L 69.959 74.811 L 60.019 74.811 C 53.552 74.811 50.079 75.071 50.079 75.556 C 50.079 76.967 52.159 80.32 53.306 80.76 C 55.784 81.711 59.795 81.206 61.084 79.781 C 62.066 78.696 63.271 78.361 66.189 78.361 C 69.921 78.361 69.99 78.398 69.185 79.959 C 66.256 85.639 60.019 88.327 53.338 86.786 Z M 62.149 68.531 C 62.149 66.905 60.242 65.126 57.862 64.532 C 55.249 63.881 52.444 65.199 51.16 67.681 L 50.043 69.841 L 56.096 69.841 C 61.506 69.841 62.149 69.702 62.149 68.531 Z M 105.65 85.828 C 103.273 84.795 100.496 81.061 100.491 78.894 C 100.489 77.876 101.13 77.651 104.038 77.651 C 105.991 77.651 107.588 77.971 107.588 78.361 C 107.588 78.752 108.227 79.71 109.008 80.491 C 111.526 83.009 118.238 82.02 118.238 79.132 C 118.238 77.693 116.326 76.746 110.783 75.44 C 104.222 73.894 101.198 71.459 101.198 67.72 C 101.198 64.923 103.543 61.21 106.212 59.779 C 109.365 58.088 115.556 58.1 119.303 59.804 C 122.576 61.293 123.538 62.326 124.189 65.049 C 124.645 66.957 124.584 67.001 121.479 67.001 C 119.038 67.001 117.892 66.591 116.528 65.226 C 113.788 62.486 108.298 63.2 108.298 66.296 C 108.298 67.367 109.203 67.92 112.381 68.795 C 123.345 71.812 125.72 73.697 125.136 78.922 C 124.521 84.43 120.668 86.899 112.759 86.853 C 110.11 86.838 106.911 86.377 105.65 85.828 Z M 16 67.711 L 16 49.252 L 23.1 49.252 L 23.1 61.273 L 25.611 59.792 C 29.437 57.534 35.201 58.186 38.236 61.218 L 40.495 63.475 L 40.721 74.823 L 40.947 86.171 L 33.75 86.171 L 33.75 77.757 C 33.75 73.129 33.398 68.335 32.969 67.103 C 32.019 64.378 29.366 63.47 26.709 64.961 C 23.724 66.637 23.122 68.789 23.11 77.829 L 23.1 86.171 L 16 86.171 Z M 128.178 72.681 L 128.178 59.191 L 131.905 59.191 L 135.633 59.19 L 135.426 72.68 L 135.218 86.171 L 128.178 86.171 Z M 128.939 55.191 C 127.176 52.949 127.167 52.837 128.573 50.83 C 130.656 47.855 135.988 49.642 135.988 53.314 C 135.988 54.691 133.325 57.061 131.779 57.061 C 131.027 57.061 129.749 56.22 128.939 55.191 Z M 54.339 51.169 C 54.339 50.27 54.631 49.232 54.987 48.861 C 55.343 48.49 55.809 46.429 56.023 44.282 C 56.933 35.143 58.283 25.892 58.777 25.403 C 59.07 25.113 59.309 23.81 59.309 22.509 C 59.309 19.818 59.983 19.494 61.274 21.562 C 61.762 22.343 62.558 22.98 63.043 22.977 C 63.527 22.975 66.32 25.336 69.249 28.224 C 79.065 37.904 86.029 44.282 86.785 44.282 C 87.198 44.282 87.933 44.761 88.419 45.347 C 89.826 47.043 91.949 46.599 95.21 43.927 C 96.878 42.56 98.414 41.442 98.624 41.442 C 99.103 41.442 104.233 37.978 104.733 37.317 C 106.208 35.367 109.718 34.8 109.718 36.511 C 109.718 36.877 111.236 39.352 113.091 42.01 C 117.965 48.996 118.281 49.634 117.335 50.58 C 116.237 51.679 114.688 51.589 114.688 50.427 C 114.688 49.901 114.049 48.893 113.268 48.187 C 112.487 47.48 111.848 46.488 111.848 45.982 C 111.848 45.476 111.405 44.807 110.862 44.494 C 110.32 44.182 109.761 43.322 109.62 42.583 C 109.285 40.829 106.831 39.296 106.373 40.554 C 106.195 41.042 105.438 41.442 104.689 41.442 C 103.941 41.442 103.328 41.73 103.328 42.082 C 103.328 42.642 99.27 45.501 97.294 46.333 C 96.903 46.497 95.273 47.701 93.67 49.007 C 92.068 50.313 90.457 51.382 90.091 51.382 C 89.724 51.382 88.013 49.944 86.289 48.187 C 84.564 46.429 82.769 44.992 82.3 44.992 C 81.83 44.992 78.331 41.637 74.524 37.537 C 70.716 33.437 67.271 30.082 66.866 30.082 C 66.462 30.082 65.239 29.227 64.148 28.181 C 63.057 27.136 61.985 26.459 61.767 26.677 C 61.549 26.895 61.179 29.358 60.945 32.151 C 60.711 34.943 60.247 37.396 59.914 37.602 C 59.582 37.807 59.309 39.855 59.309 42.152 C 59.309 44.449 58.99 46.525 58.599 46.767 C 58.209 47.008 57.889 48.465 57.889 50.003 C 57.889 52.515 57.707 52.801 56.114 52.801 C 54.735 52.801 54.339 52.437 54.339 51.169 Z"
            fill="#000000"
            stroke-width="12"/>
    </g>
</svg>
